images/twitter.svg

<svg width="25" height="20" viewBox="0 0 25 20" fill="none" xmlns="http://www.w3.org/2000/svg">
<g clip-path="url(#clip0_2_441)">
<path d="M8.91075 19C17.213 19 21.7546 12.0731 21.7546 6.07669C21.7546 5.88285 21.7546 5.68625 21.7464 5.49241C22.6306 4.84789 23.3937 4.04993 24 3.13592C23.1741 3.50262 22.2988 3.7443 21.4026 3.85312C22.3466 3.28495 23.0536 2.391 23.3923 1.3374C22.5054 1.86647 21.5346 2.23787 20.5226 2.43534C19.8423 1.70572 18.9419 1.22237 17.9611 1.06016C16.9803 0.897946 15.9737 1.06592 15.0973 1.53807C14.2209 2.01023 13.5236 2.7602 13.1134 3.67182C12.7031 4.58345 12.6029 5.60585 12.8281 6.58066C11.0334 6.49005 9.27762 6.02057 7.67468 5.20269C6.07175 4.3848 4.65744 3.23678 3.5235 1.83307C2.94784 2.83421 2.77216 4.01843 3.03214 5.14526C3.29211 6.27209 3.96825 7.25705 4.92325 7.90013C4.20762 7.87565 3.50772 7.68215 2.88 7.33524V7.39754C2.88123 8.44631 3.24205 9.46247 3.90145 10.2743C4.56086 11.0861 5.4784 11.6438 6.499 11.853C6.11161 11.9605 5.71144 12.014 5.30963 12.0122C5.02635 12.0131 4.74365 11.9867 4.46537 11.9333C4.75383 12.8361 5.3155 13.6254 6.07171 14.1908C6.82793 14.7561 7.74081 15.0691 8.6825 15.0859C7.08276 16.3511 5.10668 17.0373 3.0725 17.034C2.71407 17.0355 2.35588 17.0147 2 16.9716C4.06458 18.297 6.46228 19.0008 8.91075 19Z" fill="#1BA0AB"/>
</g>
<defs>
<clipPath id="clip0_2_441">
<rect width="24" height="19.7647" fill="white" transform="translate(0.5 0.117188)"/>
</clipPath>
</defs>
</svg>

<svg width="25" height="20" fill="none" xmlns="http://www.w3.org/2000/svg"><g clip-path="url(#a)"><path d="M8.91 19c8.303 0 12.845-6.927 12.845-12.923 0-.194 0-.39-.009-.585A9.228 9.228 0 0 0 24 3.136a9.105 9.105 0 0 1-2.597.717 4.565 4.565 0 0 0 1.99-2.516c-.888.53-1.858.9-2.87 1.098a4.491 4.491 0 0 0-5.425-.897 4.537 4.537 0 0 0-1.985 2.134 4.579 4.579 0 0 0-.285 2.909c-1.795-.091-3.55-.56-5.153-1.378a12.839 12.839 0 0 1-4.151-3.37 4.581 4.581 0 0 0-.492 3.312A4.554 4.554 0 0 0 4.923 7.9a4.545 4.545 0 0 1-2.043-.565v.063a4.572 4.572 0 0 0 1.021 2.876A4.516 4.516 0 0 0 6.5 11.853a4.374 4.374 0 0 1-1.19.16c-.283 0-.565-.026-.844-.08.289.903.85 1.692 1.607 2.258.756.565 1.669.878 2.61.895a9.019 9.019 0 0 1-5.61 1.948A8.62 8.62 0 0 1 2 16.972 12.783 12.783 0 0 0 8.91 19Z" fill="#1BA0AB"/></g><defs><clipPath id="a"><path fill="#fff" transform="translate(.5 .117)" d="M0 0h24v19.765H0z"/></clipPath></defs></svg>
